assets/images/sponsors-logos/datascope.svg

<svg xmlns="http://www.w3.org/2000/svg" preserveAspectRatio="xMinYMin" viewBox="-1 0 359 67" width="114pt">
  <path d="M27.5 45.5c-.452255.84387-1.036263 1.61017-1.73 2.27-.740048.711083-1.574566 1.31678-2.48 1.8-.972556.51683-1.998637.92592-3.06 1.22-1.076405.30844-2.19028.466604-3.31.47-2.380311.03431-4.740217-.44313-6.92-1.4-2.017328-.91158-3.827549-2.225013-5.32-3.86-1.5274628-1.668893-2.7040759-3.62765-3.46-5.76C.3893021 37.917563-.02373651 35.466416 0 33c-.02394735-2.466433.38909745-4.917617 1.22-7.24.7564178-2.13212 1.9329747-4.09078 3.46-5.76 1.502075-1.598756 3.311587-2.877659 5.32-3.76 2.167473-.95127 4.513138-1.428586 6.88-1.4 1.11972.003396 2.233595.16156 3.31.47 1.066226.297547 2.0934.720501 3.06 1.26.907835.507691 1.74219 1.136822 2.48 1.87.675694.660934 1.25776 1.411229 1.73 2.23V0h11v50.4h-11zm-8.28-3.6c1.166397.01643 2.321558-.22964 3.38-.72.97994-.461153 1.85989-1.110074 2.59-1.91.73596-.82137 1.30943-1.77489 1.69-2.81.417634-1.105406.627816-2.278357.62-3.46.01728-2.27538-.801132-4.47797-2.3-6.19-.722165-.816347-1.603527-1.476517-2.59-1.94-1.058442-.49036-2.213603-.73643-3.38-.72-1.166397-.01643-2.321558.22964-3.38.72-.986473.463483-1.867835 1.123653-2.59 1.94-1.505296 1.709587-2.330822 3.912174-2.32 6.19-.006791 1.16765.199941 2.3267.61 3.42.379687 1.03553.953253 1.989212 1.69 2.81.73011.799926 1.610061 1.448847 2.59 1.91 1.058269.50562 2.21716.76543 3.39.76zM82.08 15.7v34.7h-11v-4.9c-.452255.84387-1.03626 1.61017-1.73 2.27-.74005.711083-1.57457 1.31678-2.48 1.8-.97256.51683-1.99864.92592-3.06 1.22-1.076405.30844-2.19028.466604-3.31.47-2.36686.028586-4.71253-.44873-6.88-1.4-2.03882-.904534-3.870024-2.21837-5.38-3.86-1.527463-1.668893-2.704076-3.62765-3.46-5.76-.8307-2.322437-1.243737-4.773584-1.22-7.24-.023947-2.466433.3891-4.917617 1.22-7.24.75642-2.13212 1.932975-4.09078 3.46-5.76 1.50813-1.624779 3.33202-2.92464 5.36-3.82 2.16747-.95127 4.51314-1.428586 6.88-1.4 1.11972.003396 2.233595.16156 3.31.47 1.06623.297547 2.0934.720501 3.06 1.26.907835.507691 1.74219 1.136822 2.48 1.87.67569.660934 1.25776 1.411229 1.73 2.23v-5zm-19.3 26.2c1.1664.01643 2.32156-.22964 3.38-.72.97994-.461153 1.85989-1.110074 2.59-1.91.73596-.82137 1.30943-1.77489 1.69-2.81.41763-1.105406.62782-2.278357.62-3.46.01728-2.27538-.80113-4.47797-2.3-6.19-.722165-.816347-1.60353-1.476517-2.59-1.94-2.15438-.960898-4.61562-.960898-6.77 0-.98647.463483-1.867835 1.123653-2.59 1.94-1.501675 1.71105-2.323583 3.91348-2.31 6.19-.00679 1.16765.19994 2.3267.61 3.42.37969 1.03553.95325 1.989212 1.69 2.81.73011.799926 1.61006 1.448847 2.59 1.91 1.05827.50562 2.21716.76543 3.39.76zM112.39 50.4c-.82.146667-1.84.28-3.06.4s-2.66333.186667-4.33.2c-1.37156-.00644-2.74119-.10332-4.1-.29-1.42728-.18783-2.7942-.69359-4-1.48-1.32113-.9213-2.35987-2.19202-3-3.67-.88675-2.15307-1.29287-4.473746-1.19-6.8V23.9h-5.45v-8.2h5.47V5.4h10.94v10.3h7.92v8.2h-7.92v12.36c-.03189 1.04207.0894 2.083173.36 3.09.17692.6627.52128 1.268776 1 1.76.42235.403594.94291.689725 1.51.83.61237.14639 1.24042.21692 1.87.21h2.09c.62808.009444 1.25526-.050926 1.87-.18zM154.44 15.7v34.7h-11v-4.9c-.45225.84387-1.03626 1.61017-1.73 2.27-.74005.711083-1.57457 1.31678-2.48 1.8-.97256.51683-1.99864.92592-3.06 1.22-1.0764.30844-2.19028.466604-3.31.47-2.36686.028586-4.71253-.44873-6.88-1.4-2.03882-.904534-3.87002-2.21837-5.38-3.86-1.52746-1.668893-2.70408-3.62765-3.46-5.76-.8307-2.322437-1.24374-4.773584-1.22-7.24-.02395-2.466433.3891-4.917617 1.22-7.24.75642-2.13212 1.93297-4.09078 3.46-5.76 1.52549-1.60761 3.36297-2.887041 5.4-3.76 2.16747-.95127 4.51314-1.428586 6.88-1.4 1.11972.003396 2.2336.16156 3.31.47 1.06623.297547 2.0934.720501 3.06 1.26.90783.507691 1.74219 1.136822 2.48 1.87.6757.660934 1.25776 1.411229 1.73 2.23v-5zm-19.3 26.2c1.1664.01643 2.32156-.22964 3.38-.72.97994-.461153 1.85989-1.110074 2.59-1.91.73596-.82137 1.30943-1.77489 1.69-2.81.4094-1.093477.61612-2.25241.61-3.42.01728-2.27538-.80113-4.47797-2.3-6.19-.72217-.816347-1.60353-1.476517-2.59-1.94-2.15438-.960898-4.61562-.960898-6.77 0-.98647.463483-1.86783 1.123653-2.59 1.94-1.49806 1.712513-2.31635 3.914785-2.3 6.19-.00679 1.16765.19994 2.3267.61 3.42.37969 1.03553.95325 1.989212 1.69 2.81.73011.799926 1.61006 1.448847 2.59 1.91 1.0615.49183 2.22024.737934 3.39.72zM180.57 30c1.53333.433333 2.97333.9 4.32 1.4 1.25746.457134 2.44545 1.086463 3.53 1.87.99373.722342 1.8165 1.654345 2.41 2.73.64426 1.29635.95367 2.73338.9 4.18.06072 1.817135-.36018 3.61801-1.22 5.22-.81747 1.419454-1.98005 2.60956-3.38 3.46-1.54038.92779-3.23336 1.57451-5 1.91-2.0023.39535-4.03907.589645-6.08.58-4.94667 0-8.84667-1.08-11.7-3.24-2.85333-2.16-4.28-5.256667-4.28-9.29h10.8c-.1426 1.47973.43398 2.93794 1.55 3.92 1.16188.834566 2.57087 1.25374 4 1.19 1.14199.04842 2.27568-.21427 3.28-.76.85147-.52531 1.33781-1.482556 1.26-2.48.02852-.588474-.1641-1.166335-.54-1.62-.4742-.486565-1.03783-.87704-1.66-1.15-.93206-.430517-1.89468-.7915-2.88-1.08-1.18-.36-2.58333-.803333-4.21-1.33-1.44-.433333-2.80667-.9-4.1-1.4-1.21544-.4614-2.36522-1.079994-3.42-1.84-.9829-.71846-1.78423-1.65676-2.34-2.74-.61764-1.304236-.9126-2.73787-.86-4.18-.19952-3.225797 1.39132-6.299895 4.14-8 2.76-1.726667 6.49333-2.59 11.2-2.59 2.22969-.037423 4.452.26608 6.59.9 1.71174.501472 3.30388 1.345171 4.68 2.48 1.19555 1.01997 2.14287 2.299033 2.77 3.74.62796 1.45538.948 3.024945.94 4.61h-10.91c.07644-1.219816-.3253-2.421434-1.12-3.35-.93007-.842142-2.17066-1.255674-3.42-1.14-1.01246-.023304-2.01087.240166-2.88.76-.80834.494156-1.27766 1.39434-1.22 2.34-.02011.57318.18855 1.130825.58 1.55.49267.46256 1.06986.82585 1.7 1.07.90118.39176 1.82639.725768 2.77 1 1.09333.34 2.36.766667 3.8 1.28zM221.61 29.3c-.18783-1.429154-.86236-2.749946-1.91-3.74-1.03333-.96-2.67667-1.44-4.93-1.44-1.18002-.02424-2.34992.222053-3.42.72-.94428.448845-1.76982 1.113387-2.41 1.94-.64002.850874-1.11488 1.814173-1.4 2.84-.62503 2.237165-.62503 4.602835 0 6.84.29266 1.037494.78898 2.00633 1.46 2.85.67538.83622 1.53886 1.500957 2.52 1.94 1.16926.50801 2.4356.753766 3.71.72 1.53414.11337 3.0603-.307034 4.32-1.19 1.03506-.90758 1.78525-2.095386 2.16-3.42h11c-.26587 1.92078-.84347 3.785293-1.71 5.52-.86252 1.70177-2.06377 3.209287-3.53 4.43-1.60852 1.333225-3.45413 2.351023-5.44 3-2.3619.75439-4.83086 1.11916-7.31 1.08-2.742.05048-5.46506-.4635-8-1.51-2.2098-.91753-4.20772-2.278967-5.87-4-1.60307-1.68461-2.83313-3.688145-3.61-5.88-1.58238-4.47078-1.58238-9.34922 0-13.82.76913-2.169371 1.98153-4.154838 3.56-5.83 1.66264-1.720597 3.66046-3.08197 5.87-4 2.53494-1.0465 5.258-1.560481 8-1.51 2.6024-.078362 5.1975.314631 7.66 1.16 2.004.721866 3.85075 1.821775 5.44 3.24 1.4306 1.300615 2.58073 2.879494 3.38 4.64.78393 1.72149 1.28374 3.55863 1.48 5.44zM255.53 51.34c-2.73802.037296-5.45653-.46563-8-1.48-2.24438-.924304-4.28357-2.28377-6-4-1.65464-1.649475-2.9546-3.61982-3.82-5.79-1.77497-4.53587-1.77497-9.57413 0-14.11.86496-2.173358 2.16488-4.14706 3.82-5.8 1.71643-1.71623 3.75562-3.075696 6-4 5.19638-1.969105 10.93362-1.969105 16.13 0 2.24438.924304 4.28357 2.28377 6 4 1.6549 1.65312 2.9548 3.626773 3.82 5.8 1.77497 4.53587 1.77497 9.57413 0 14.11-.8659 2.16992-2.1658 4.14017-3.82 5.79-1.71643 1.71623-3.75562 3.075696-6 4-2.58523 1.026927-5.34872 1.53-8.13 1.48zm0-9.43c1.17512.01624 2.34047-.215464 3.42-.68 1.00607-.436193 1.90393-1.088252 2.63-1.91.72636-.82842 1.2987-1.78007 1.69-2.81.41623-1.1055.6231-2.27881.61-3.46.0059-1.167572-.2008-2.326464-.61-3.42-.38013-1.03532-.95365-1.98892-1.69-2.81-.73953-.806798-1.63398-1.45638-2.63-1.91-1.073-.489127-2.24087-.734993-3.42-.72-1.1664-.01643-2.32156.22964-3.38.72-2.00157.927227-3.53703 2.632485-4.25 4.72-.76956 2.228774-.76956 4.651226 0 6.88.37046 1.033307.93377 1.986865 1.66 2.81.71646.814936 1.59975 1.46632 2.59 1.91 1.06567.462867 2.21835.691356 3.38.67zM289.94 20.66c.47224-.818771 1.0543-1.569066 1.73-2.23.7472-.739524 1.5957-1.369148 2.52-1.87.9704-.531574 1.99665-.954145 3.06-1.26 1.08887-.314065 2.21674-.472303 3.35-.47 2.36686-.028586 4.71253.44873 6.88 1.4 2.02784.895604 3.8517 2.195433 5.36 3.82 1.52507 1.670678 2.70138 3.628923 3.46 5.76.8243 2.306805 1.23723 4.740406 1.22 7.19.0231 2.466366-.3899 4.917403-1.22 7.24-.7569 2.131887-1.9334 4.090455-3.46 5.76-1.50794 1.62499-3.3319 2.924886-5.36 3.82-2.16747.95127-4.51314 1.428586-6.88 1.4-1.13326.002303-2.26113-.155935-3.35-.47-1.06362-.305076-2.08995-.72768-3.06-1.26-.9185-.497867-1.76607-1.11672-2.52-1.84-.69374-.65983-1.27775-1.42613-1.73-2.27V66.1h-11V15.7h11zm8.35 3.53c-1.17913-.014993-2.347.230873-3.42.72-.99616.45338-1.89065 1.102997-2.63 1.91-.73675.820788-1.3103 1.77447-1.69 2.81-.8153 2.207117-.8153 4.632883 0 6.84.3799 1.035426.95345 1.989067 1.69 2.81.7397.806593 1.63412 1.456144 2.63 1.91 1.073.489127 2.24087.734993 3.42.72 1.14338.011384 2.27466-.234695 3.31-.72.97994-.461153 1.8599-1.110074 2.59-1.91.73616-.821224 1.30965-1.774785 1.69-2.81.81617-2.20696.81617-4.63304 0-6.84-.38013-1.03532-.95365-1.98892-1.69-2.81-.72976-.800314-1.6098-1.449295-2.59-1.91-1.03534-.485305-2.16662-.731384-3.31-.72zM332.06 35.71c.0402 1.014803.19792 2.021524.47 3 .24564.90322.68977 1.740234 1.3 2.45.64023.727845 1.44148 1.29625 2.34 1.66 1.1474.44103 2.37135.64842 3.6.61 1.5404.10806 3.0733-.29626 4.36-1.15.9458-.713705 1.6591-1.691465 2.05-2.81H357c-.23957 1.636723-.81495 3.20624-1.69 4.61-.92206 1.475727-2.1207 2.75928-3.53 3.78-1.5721 1.13574-3.32286 2.000973-5.18 2.56-4.84626 1.370274-9.99507 1.23074-14.76-.4-2.21107-.812525-4.21545-2.10325-5.87-3.78-1.59883-1.65531-2.82614-3.632644-3.6-5.8-.85542-2.38603-1.2787-4.90543-1.25-7.44-.01844-2.427584.3842-4.839983 1.19-7.13.76053-2.157775 1.9628-4.13318 3.53-5.8 1.62284-1.697337 3.5856-3.033105 5.76-3.92 2.543-1.012062 5.2637-1.501792 8-1.44 2.52007-.037202 5.02433.403928 7.38 1.3 2.0717.794823 3.97745 1.968117 5.62 3.46 3.1063 2.849563 4.87024 6.874664 4.86 11.09v2.3c-.0378.943232-.14476 1.88242-.32 2.81zm7.42-13.61c-1.95373-.068117-3.8599.611382-5.33 1.9-1.45825 1.404153-2.22297 3.379985-2.09 5.4h14.54c.1023-1.977294-.6222-3.90809-2-5.33-1.36755-1.32593-3.2164-2.037298-5.12-1.97z" fill="#00305a"/>
  </svg>

<?xml version="1.0" encoding="UTF-8" standalone="no"?>
<!DOCTYPE svg PUBLIC "-//W3C//DTD SVG 1.1//EN" "http://www.w3.org/Graphics/SVG/1.1/DTD/svg11.dtd">
<svg xmlns="http://www.w3.org/2000/svg" xmlns:xl="http://www.w3.org/1999/xlink" version="1.1" preserveAspectRatio="xMinYMin" viewBox="-1 0 359 67" width="359pt" height="67pt" xmlns:dc="http://purl.org/dc/elements/1.1/">
  <metadata> Produced by OmniGraffle 7.5 
    <dc:date>2017-12-02 15:53:54 +0000</dc:date>
  </metadata>
  <defs/>
  <g>
    <title>Canvas 1</title>
    <g>
      <title>Layer 1</title>
      <path d="M 27.5 45.5 C 27.047745 46.34387 26.463737 47.11017 25.77 47.77 C 25.029952 48.481083 24.195434 49.08678 23.29 49.57 C 22.317444 50.08683 21.291363 50.49592 20.23 50.79 C 19.153595 51.09844 18.03972 51.256604 16.92 51.26 C 14.539689 51.29431 12.179783 50.81687 10 49.86 C 7.982672 48.94842 6.172451 47.634987 4.68 46 C 3.1525372 44.331107 1.9759241 42.37235 1.22 40.24 C .3893021 37.917563 -.02373651 35.466416 -35527137e-22 33 C -.02394735 30.533567 .38909745 28.082383 1.22 25.76 C 1.9764178 23.62788 3.1529747 21.66922 4.68 20 C 6.182075 18.401244 7.991587 17.122341 10 16.24 C 12.167473 15.28873 14.513138 14.811414 16.88 14.84 C 17.99972 14.843396 19.113595 15.00156 20.19 15.31 C 21.256226 15.607547 22.2834 16.030501 23.25 16.57 C 24.157835 17.077691 24.99219 17.706822 25.73 18.44 C 26.405694 19.100934 26.98776 19.851229 27.46 20.67 L 27.46 0 L 38.46 0 L 38.46 50.4 L 27.46 50.4 Z M 19.22 41.9 C 20.386397 41.91643 21.541558 41.67036 22.6 41.18 C 23.57994 40.718847 24.45989 40.069926 25.19 39.27 C 25.92596 38.44863 26.49943 37.49511 26.88 36.46 C 27.297634 35.354594 27.507816 34.181643 27.5 33 C 27.51728 30.72462 26.698868 28.52203 25.2 26.81 C 24.477835 25.993653 23.596473 25.333483 22.61 24.87 C 21.551558 24.37964 20.396397 24.13357 19.23 24.15 C 18.063603 24.13357 16.908442 24.37964 15.85 24.87 C 14.863527 25.333483 13.982165 25.993653 13.26 26.81 C 11.754704 28.519587 10.929178 30.722174 10.94 33 C 10.933209 34.16765 11.139941 35.3267 11.55 36.42 C 11.929687 37.45553 12.503253 38.409212 13.24 39.23 C 13.97011 40.029926 14.850061 40.678847 15.83 41.14 C 16.888269 41.64562 18.04716 41.90543 19.22 41.9 Z" fill="#00305a"/>
      <path d="M 82.08 15.7 L 82.08 50.4 L 71.08 50.4 L 71.08 45.5 C 70.627745 46.34387 70.04374 47.11017 69.35 47.77 C 68.60995 48.481083 67.77543 49.08678 66.87 49.57 C 65.89744 50.08683 64.87136 50.49592 63.81 50.79 C 62.733595 51.09844 61.61972 51.256604 60.5 51.26 C 58.13314 51.288586 55.78747 50.81127 53.62 49.86 C 51.58118 48.955466 49.749976 47.64163 48.24 46 C 46.712537 44.331107 45.535924 42.37235 44.78 40.24 C 43.9493 37.917563 43.536263 35.466416 43.56 33 C 43.536053 30.533567 43.9491 28.082383 44.78 25.76 C 45.53642 23.62788 46.712975 21.66922 48.24 20 C 49.74813 18.375221 51.57202 17.07536 53.6 16.18 C 55.76747 15.22873 58.11314 14.751414 60.48 14.78 C 61.59972 14.783396 62.713595 14.94156 63.79 15.25 C 64.85623 15.547547 65.8834 15.970501 66.85 16.51 C 67.757835 17.017691 68.59219 17.646822 69.33 18.38 C 70.00569 19.040934 70.58776 19.791229 71.06 20.61 L 71.06 15.61 Z M 62.78 41.9 C 63.9464 41.91643 65.10156 41.67036 66.16 41.18 C 67.13994 40.718847 68.01989 40.069926 68.75 39.27 C 69.48596 38.44863 70.05943 37.49511 70.44 36.46 C 70.85763 35.354594 71.06782 34.181643 71.06 33 C 71.07728 30.72462 70.25887 28.52203 68.76 26.81 C 68.037835 25.993653 67.15647 25.333483 66.17 24.87 C 64.01562 23.909102 61.55438 23.909102 59.4 24.87 C 58.41353 25.333483 57.532165 25.993653 56.81 26.81 C 55.308325 28.52105 54.486417 30.72348 54.5 33 C 54.49321 34.16765 54.69994 35.3267 55.11 36.42 C 55.48969 37.45553 56.06325 38.409212 56.8 39.23 C 57.53011 40.029926 58.41006 40.678847 59.39 41.14 C 60.44827 41.64562 61.60716 41.90543 62.78 41.9 Z" fill="#00305a"/>
      <path d="M 112.39 50.4 C 111.57 50.546667 110.55 50.68 109.33 50.8 C 108.11 50.92 106.66667 50.986667 105 51 C 103.62844 50.99356 102.25881 50.89668 100.9 50.71 C 99.47272 50.52217 98.1058 50.01641 96.9 49.23 C 95.57887 48.3087 94.54013 47.03798 93.9 45.56 C 93.01325 43.40693 92.60713 41.086254 92.71 38.76 L 92.71 23.9 L 87.26 23.9 L 87.26 15.7 L 92.73 15.7 L 92.73 5.4 L 103.67 5.4 L 103.67 15.7 L 111.59 15.7 L 111.59 23.9 L 103.67 23.9 L 103.67 36.26 C 103.63811 37.30207 103.7594 38.343173 104.03 39.35 C 104.20692 40.0127 104.55128 40.618776 105.03 41.11 C 105.45235 41.513594 105.97291 41.799725 106.54 41.94 C 107.15237 42.08639 107.78042 42.15692 108.41 42.15 L 110.5 42.15 C 111.12808 42.159444 111.75526 42.099074 112.37 41.97 Z" fill="#00305a"/>
      <path d="M 154.44 15.7 L 154.44 50.4 L 143.44 50.4 L 143.44 45.5 C 142.98775 46.34387 142.40374 47.11017 141.71 47.77 C 140.96995 48.481083 140.13543 49.08678 139.23 49.57 C 138.25744 50.08683 137.23136 50.49592 136.17 50.79 C 135.0936 51.09844 133.97972 51.256604 132.86 51.26 C 130.49314 51.288586 128.14747 50.81127 125.98 49.86 C 123.94118 48.955466 122.10998 47.64163 120.6 46 C 119.07254 44.331107 117.89592 42.37235 117.14 40.24 C 116.3093 37.917563 115.89626 35.466416 115.92 33 C 115.89605 30.533567 116.3091 28.082383 117.14 25.76 C 117.89642 23.62788 119.07297 21.66922 120.6 20 C 122.12549 18.39239 123.96297 17.112959 126 16.24 C 128.16747 15.28873 130.51314 14.811414 132.88 14.84 C 133.99972 14.843396 135.1136 15.00156 136.19 15.31 C 137.25623 15.607547 138.2834 16.030501 139.25 16.57 C 140.15783 17.077691 140.99219 17.706822 141.73 18.44 C 142.4057 19.100934 142.98776 19.851229 143.46 20.67 L 143.46 15.67 Z M 135.14 41.9 C 136.3064 41.91643 137.46156 41.67036 138.52 41.18 C 139.49994 40.718847 140.37989 40.069926 141.11 39.27 C 141.84596 38.44863 142.41943 37.49511 142.8 36.46 C 143.2094 35.366523 143.41612 34.20759 143.41 33.04 C 143.42728 30.76462 142.60887 28.56203 141.11 26.85 C 140.38783 26.033653 139.50647 25.373483 138.52 24.91 C 136.36562 23.949102 133.90438 23.949102 131.75 24.91 C 130.76353 25.373483 129.88217 26.033653 129.16 26.85 C 127.66194 28.562513 126.84365 30.764785 126.86 33.04 C 126.85321 34.20765 127.05994 35.3667 127.47 36.46 C 127.84969 37.49553 128.42325 38.449212 129.16 39.27 C 129.89011 40.069926 130.77006 40.718847 131.75 41.18 C 132.8115 41.67183 133.97024 41.917934 135.14 41.9 Z" fill="#00305a"/>
      <path d="M 180.57 30 C 182.10333 30.433333 183.54333 30.9 184.89 31.4 C 186.14746 31.857134 187.33545 32.486463 188.42 33.27 C 189.41373 33.992342 190.2365 34.924345 190.83 36 C 191.47426 37.29635 191.78367 38.73338 191.73 40.18 C 191.79072 41.997135 191.36982 43.79801 190.51 45.4 C 189.69253 46.819454 188.52995 48.00956 187.13 48.86 C 185.58962 49.78779 183.89664 50.43451 182.13 50.77 C 180.1277 51.16535 178.09093 51.359645 176.05 51.35 C 171.10333 51.35 167.20333 50.27 164.35 48.11 C 161.49667 45.95 160.07 42.853333 160.07 38.82 L 170.87 38.82 C 170.7274 40.29973 171.30398 41.75794 172.42 42.74 C 173.58188 43.574566 174.99087 43.99374 176.42 43.93 C 177.56199 43.97842 178.69568 43.71573 179.7 43.17 C 180.55147 42.64469 181.03781 41.687444 180.96 40.69 C 180.98852 40.101526 180.7959 39.523665 180.42 39.07 C 179.9458 38.583435 179.38217 38.19296 178.76 37.92 C 177.82794 37.489483 176.86532 37.1285 175.88 36.84 C 174.7 36.48 173.29667 36.036667 171.67 35.51 C 170.23 35.076667 168.86333 34.61 167.57 34.11 C 166.35456 33.6486 165.20478 33.030006 164.15 32.27 C 163.1671 31.55154 162.36577 30.61324 161.81 29.53 C 161.19236 28.225764 160.8974 26.79213 160.95 25.35 C 160.75048 22.124203 162.34132 19.050105 165.09 17.35 C 167.85 15.623333 171.58333 14.76 176.29 14.76 C 178.51969 14.722577 180.742 15.02608 182.88 15.66 C 184.59174 16.161472 186.18388 17.005171 187.56 18.14 C 188.75555 19.15997 189.70287 20.439033 190.33 21.88 C 190.95796 23.33538 191.278 24.904945 191.27 26.49 L 180.36 26.49 C 180.43644 25.270184 180.0347 24.068566 179.24 23.14 C 178.30993 22.297858 177.06934 21.884326 175.82 22 C 174.80754 21.976696 173.80913 22.240166 172.94 22.76 C 172.13166 23.254156 171.66234 24.15434 171.72 25.1 C 171.69989 25.67318 171.90855 26.230825 172.3 26.65 C 172.79267 27.11256 173.36986 27.47585 174 27.72 C 174.90118 28.11176 175.82639 28.445768 176.77 28.72 C 177.86333 29.06 179.13 29.486667 180.57 30 Z" fill="#00305a"/>
      <path d="M 221.61 29.3 C 221.42217 27.870846 220.74764 26.550054 219.7 25.56 C 218.66667 24.6 217.02333 24.12 214.77 24.12 C 213.58998 24.09576 212.42008 24.342053 211.35 24.84 C 210.40572 25.288845 209.58018 25.953387 208.94 26.78 C 208.29998 27.630874 207.82512 28.594173 207.54 29.62 C 206.91497 31.857165 206.91497 34.222835 207.54 36.46 C 207.83266 37.497494 208.32898 38.46633 209 39.31 C 209.67538 40.14622 210.53886 40.810957 211.52 41.25 C 212.68926 41.75801 213.9556 42.003766 215.23 41.97 C 216.76414 42.08337 218.2903 41.662966 219.55 40.78 C 220.58506 39.87242 221.33525 38.684614 221.71 37.36 L 232.71 37.36 C 232.44413 39.28078 231.86653 41.145293 231 42.88 C 230.13748 44.58177 228.93623 46.089287 227.47 47.31 C 225.86148 48.643225 224.01587 49.661023 222.03 50.31 C 219.6681 51.06439 217.19914 51.42916 214.72 51.39 C 211.978 51.44048 209.25494 50.9265 206.72 49.88 C 204.5102 48.96247 202.51228 47.601033 200.85 45.88 C 199.24693 44.19539 198.01687 42.191855 197.24 40 C 195.65762 35.52922 195.65762 30.65078 197.24 26.18 C 198.00913 24.010629 199.22153 22.025162 200.8 20.35 C 202.46264 18.629403 204.46046 17.26803 206.67 16.35 C 209.20494 15.3035 211.928 14.789519 214.67 14.84 C 217.2724 14.761638 219.8675 15.154631 222.33 16 C 224.334 16.721866 226.18075 17.821775 227.77 19.24 C 229.2006 20.540615 230.35073 22.119494 231.15 23.88 C 231.93393 25.60149 232.43374 27.43863 232.63 29.32 Z" fill="#00305a"/>
      <path d="M 255.53 51.34 C 252.79198 51.377296 250.07347 50.87437 247.53 49.86 C 245.28562 48.935696 243.24643 47.57623 241.53 45.86 C 239.87536 44.210525 238.5754 42.24018 237.71 40.07 C 235.93503 35.53413 235.93503 30.49587 237.71 25.96 C 238.57496 23.786642 239.87488 21.81294 241.53 20.16 C 243.24643 18.44377 245.28562 17.084304 247.53 16.16 C 252.72638 14.190895 258.46362 14.190895 263.66 16.16 C 265.90438 17.084304 267.94357 18.44377 269.66 20.16 C 271.3149 21.81312 272.6148 23.786773 273.48 25.96 C 275.25497 30.49587 275.25497 35.53413 273.48 40.07 C 272.6141 42.23992 271.3142 44.21017 269.66 45.86 C 267.94357 47.57623 265.90438 48.935696 263.66 49.86 C 261.07477 50.886927 258.31128 51.39 255.53 51.34 Z M 255.53 41.91 C 256.70512 41.92624 257.87047 41.694536 258.95 41.23 C 259.95607 40.793807 260.85393 40.141748 261.58 39.32 C 262.30636 38.49158 262.8787 37.53993 263.27 36.51 C 263.68623 35.4045 263.8931 34.23119 263.88 33.05 C 263.8859 31.882428 263.6792 30.723536 263.27 29.63 C 262.88987 28.59468 262.31635 27.64108 261.58 26.82 C 260.84047 26.013202 259.94602 25.36362 258.95 24.91 C 257.877 24.420873 256.70913 24.175007 255.53 24.19 C 254.3636 24.17357 253.20844 24.41964 252.15 24.91 C 250.14843 25.837227 248.61297 27.542485 247.9 29.63 C 247.13044 31.858774 247.13044 34.281226 247.9 36.51 C 248.27046 37.543307 248.83377 38.496865 249.56 39.32 C 250.27646 40.134936 251.15975 40.78632 252.15 41.23 C 253.21567 41.692867 254.36835 41.921356 255.53 41.9 Z" fill="#00305a"/>
      <path d="M 289.94 20.66 C 290.41224 19.841229 290.9943 19.090934 291.67 18.43 C 292.4172 17.690476 293.2657 17.060852 294.19 16.56 C 295.1604 16.028426 296.18665 15.605855 297.25 15.3 C 298.33887 14.985935 299.46674 14.827697 300.6 14.83 C 302.96686 14.801414 305.31253 15.27873 307.48 16.23 C 309.50784 17.125604 311.3317 18.425433 312.84 20.05 C 314.36507 21.720678 315.54138 23.678923 316.3 25.81 C 317.1243 28.116805 317.53723 30.550406 317.52 33 C 317.5431 35.466366 317.1301 37.917403 316.3 40.24 C 315.5431 42.371887 314.3666 44.330455 312.84 46 C 311.33206 47.62499 309.5081 48.924886 307.48 49.82 C 305.31253 50.77127 302.96686 51.248586 300.6 51.22 C 299.46674 51.222303 298.33887 51.064065 297.25 50.75 C 296.18638 50.444924 295.16005 50.02232 294.19 49.49 C 293.2715 48.992133 292.42393 48.37328 291.67 47.65 C 290.97626 46.99017 290.39225 46.22387 289.94 45.38 L 289.94 66.1 L 278.94 66.1 L 278.94 15.7 L 289.94 15.7 Z M 298.29 24.19 C 297.11087 24.175007 295.943 24.420873 294.87 24.91 C 293.87384 25.36338 292.97935 26.012997 292.24 26.82 C 291.50325 27.640788 290.9297 28.59447 290.55 29.63 C 289.7347 31.837117 289.7347 34.262883 290.55 36.47 C 290.9299 37.505426 291.50345 38.459067 292.24 39.28 C 292.9797 40.086593 293.87412 40.736144 294.87 41.19 C 295.943 41.679127 297.11087 41.924993 298.29 41.91 C 299.43338 41.921384 300.56466 41.675305 301.6 41.19 C 302.57994 40.728847 303.4599 40.079926 304.19 39.28 C 304.92616 38.458776 305.49965 37.505215 305.88 36.47 C 306.69617 34.26304 306.69617 31.83696 305.88 29.63 C 305.49987 28.59468 304.92635 27.64108 304.19 26.82 C 303.46024 26.019686 302.5802 25.370705 301.6 24.91 C 300.56466 24.424695 299.43338 24.178616 298.29 24.19 Z" fill="#00305a"/>
      <path d="M 332.06 35.71 C 332.1002 36.724803 332.25792 37.731524 332.53 38.71 C 332.77564 39.61322 333.21977 40.450234 333.83 41.16 C 334.47023 41.887845 335.27148 42.45625 336.17 42.82 C 337.3174 43.26103 338.54135 43.46842 339.77 43.43 C 341.3104 43.53806 342.8433 43.13374 344.13 42.28 C 345.0758 41.566295 345.7891 40.588535 346.18 39.47 L 357 39.47 C 356.76043 41.106723 356.18505 42.67624 355.31 44.08 C 354.38794 45.555727 353.1893 46.83928 351.78 47.86 C 350.2079 48.99574 348.45714 49.860973 346.6 50.42 C 341.75374 51.790274 336.60493 51.65074 331.84 50.02 C 329.62893 49.207475 327.62455 47.91675 325.97 46.24 C 324.37117 44.58469 323.14386 42.607356 322.37 40.44 C 321.51458 38.05397 321.0913 35.53457 321.12 33 C 321.10156 30.572416 321.5042 28.160017 322.31 25.87 C 323.07053 23.712225 324.2728 21.73682 325.84 20.07 C 327.46284 18.372663 329.4256 17.036895 331.6 16.15 C 334.143 15.137938 336.8637 14.648208 339.6 14.71 C 342.12007 14.672798 344.62433 15.113928 346.98 16.01 C 349.0517 16.804823 350.95745 17.978117 352.6 19.47 C 355.7063 22.319563 357.47024 26.344664 357.46 30.56 C 357.46 31.28 357.46 32.046667 357.46 32.86 C 357.4222 33.803232 357.31524 34.74242 357.14 35.67 Z M 339.48 22.1 C 337.52627 22.031883 335.6201 22.711382 334.15 24 C 332.69175 25.404153 331.92703 27.379985 332.06 29.4 L 346.6 29.4 C 346.7023 27.422706 345.9778 25.49191 344.6 24.07 C 343.23245 22.74407 341.3836 22.032702 339.48 22.1 Z" fill="#00305a"/>
    </g>
  </g>
</svg>
